src/assets/img/FB-light.svg

<svg width="12" height="22" viewBox="0 0 12 22" fill="none" xmlns="http://www.w3.org/2000/svg">
<path d="M7.375 7.5625V4.8125C7.375 4.0535 7.991 3.4375 8.75 3.4375H10.125V0H7.375C5.09662 0 3.25 1.84663 3.25 4.125V7.5625H0.5V11H3.25V22H7.375V11H10.125L11.5 7.5625H7.375Z" fill="#F5F5F5"/>
</svg>

<svg xmlns="http://www.w3.org/2000/svg" fill="none" viewBox="0 0 12 22"><path fill="#F5F5F5" d="M7.375 7.563v-2.75c0-.76.616-1.375 1.375-1.375h1.375V0h-2.75A4.125 4.125 0 0 0 3.25 4.125v3.438H.5V11h2.75v11h4.125V11h2.75L11.5 7.562H7.375z"/></svg>
